resources/svg/minor-position-based-model.svg

<svg xmlns="http://www.w3.org/2000/svg" viewBox="0 0 20 20" fill="currentColor"><path d="M4 6C4.55228 6 5 6.44772 5 7L5 16C5 16.5523 4.55228 17 4 17C3.44772 17 3 16.5523 3 16L3 7C3 6.44772 3.44772 6 4 6Z" fill="#5C5F62"/><path d="M8 12C8.55228 12 9 12.4477 9 13V16C9 16.5523 8.55228 17 8 17C7.44772 17 7 16.5523 7 16V13C7 12.4477 7.44772 12 8 12Z" fill="#5C5F62"/><path d="M12 12C12.5523 12 13 12.4477 13 13L13 16C13 16.5523 12.5523 17 12 17C11.4477 17 11 16.5523 11 16L11 13C11 12.4477 11.4477 12 12 12Z" fill="#5C5F62"/><path d="M16 6C16.5523 6 17 6.44772 17 7V16C17 16.5523 16.5523 17 16 17C15.4477 17 15 16.5523 15 16V7C15 6.44772 15.4477 6 16 6Z" fill="#5C5F62"/></svg>

<svg xmlns="http://www.w3.org/2000/svg" viewBox="0 0 20 20" fill="currentColor"><path d="M4 6a1 1 0 0 1 1 1v9a1 1 0 1 1-2 0v-9a1 1 0 0 1 1-1Z"/><path d="M8 12a1 1 0 0 1 1 1v3a1 1 0 1 1-2 0v-3a1 1 0 0 1 1-1Z"/><path d="M12 12a1 1 0 0 1 1 1v3a1 1 0 1 1-2 0v-3a1 1 0 0 1 1-1Z"/><path d="M16 6a1 1 0 0 1 1 1v9a1 1 0 1 1-2 0v-9a1 1 0 0 1 1-1Z"/></svg>
